X: 125
T: Bank's Hornpipe
C: Scottish
M: 4/4
K: Eb
V: 1 clef=treble
%% %% transpose -1
L: 1/8
(3(uB,CD |: "Eb" E2) G4 (3(BGE | "Bb" D2) F4 (3(FED | "Ab" A,2) [c4E4] (de) | "Bb" (=ABcB) (_AG)(AF) |
"Eb" [E2G,2] ([B4E4] c2) | "Ab" [E2A,2] [c4E4] (de) | "Bb" D2 ((3DEF AF)DF |1 "Eb" E2 G2 E2 ((3B,CD :|2 "Eb" E2 G2 E2 u(g/a/g/f/) |]
|: vg2 "Eb" u[B2E2] v[B2E2] u(3(gag) | "Bb" vf2 u[B2D2] v[B2D2] (gf) | "F" e2 [c2] [c2] (fe) | "Bb" dcB=A B2 B2 | !>!B,DFD !>!B,DFD |
"Eb" !>!B,EGE !>!B,EGE | "F" =A2 (3ABc ecAc | "Bb" ~B=ABc B_AGF | "Eb" EG[GB]G [eG]GFE |
"Bb" DF[FB]F [dF]FED | "Ab" CEAE cBAG | "Bb" ~FEDE DCB,A, | "Eb" (!>!G,/E/B/g/) (g/B/E/G,/) (!>!G,/E/B/g/) (g/B/E/G,/) |
"Ab" (!>!A,/E/c/a/) (a/c/E/A,/) (!>!A,/E/c/a/) (a/c/E/A,/) | "Bb" D2 ((3DEF AF)DF |1 "Eb" !>!E2 G2 E2 (g/a/g/f/) :|2 "Eb" !>!E2 G2 E2 z2 |]

